; generated by PrusaSlicer 2.2.0 on 2020-07-08 at 21:52:16 UTC

; 

; external perimeters extrusion width = 0.45mm
; perimeters extrusion width = 0.45mm
; infill extrusion width = 0.45mm
; solid infill extrusion width = 0.45mm
; top infill extrusion width = 0.40mm
; first layer extrusion width = 0.42mm

M73 P0 R61
M73 Q0 S61
M201 X1000 Y1000 Z200 E5000 ; sets maximum accelerations, mm/sec^2
M203 X200 Y200 Z12 E120 ; sets maximum feedrates, mm/sec
M204 P1250 R1250 T1250 ; sets acceleration (P, T) and retract acceleration (R), mm/sec^2
M205 X8.00 Y8.00 Z0.40 E4.50 ; sets the jerk limits, mm/sec
M205 S0 T0 ; sets the minimum extruding and travel feed rate, mm/sec
M107
M862.3 P "MK3S" ; printer model check
M862.1 P0.4 ; nozzle diameter check
M115 U3.9.0 ; tell printer latest fw version
G90 ; use absolute coordinates
M83 ; extruder relative mode
M104 S215 ; set extruder temp
M140 S60 ; set bed temp
M190 S60 ; wait for bed temp
M109 S215 ; wait for extruder temp
G28 W ; home all without mesh bed level
G80 ; mesh bed leveling
G1 Y-3.0 F1000.0 ; go outside print area
G92 E0.0
G1 X60.0 E9.0 F1000.0 ; intro line
M73 Q0 S61
M73 P0 R61
G1 X100.0 E12.5 F1000.0 ; intro line
G92 E0.0
M221 S95
G21 ; set units to millimeters
G90 ; use absolute coordinates
M83 ; use relative distances for extrusion
M900 K0.06 ; Filament gcode LA 1.5
M900 K30 ; Filament gcode LA 1.0
;BEFORE_LAYER_CHANGE
G92 E0.0
;0.2


G1 E-0.80000 F2100.00000
G1 Z0.600 F10800.000
;AFTER_LAYER_CHANGE
;0.2
G1 X104.590 Y99.170
G1 Z0.200
G1 E0.80000 F2100.00000
M204 S1000
G1 F1200.000
G1 X105.469 Y98.263 E0.03960
G1 X106.879 Y97.103 E0.05726
G1 X108.862 Y95.842 E0.07366
G1 X110.875 Y94.864 E0.07018
G1 X114.171 Y93.692 E0.10969
G1 X117.793 Y92.847 E0.11659
G1 X121.682 Y92.353 E0.12294
G1 X127.011 Y92.273 E0.16710
G1 X131.890 Y92.793 E0.15383
G1 X136.388 Y93.860 E0.14495
G1 X140.198 Y95.361 E0.12840
G1 X142.938 Y96.968 E0.09960
G1 X144.871 Y98.598 E0.07925
G1 X146.000 Y99.909 E0.05427
G1 X146.915 Y101.427 E0.05559
G1 X147.372 Y102.561 E0.03830
G1 X147.622 Y103.577 E0.03283
G1 X147.752 Y105.041 E0.04607
G1 X147.611 Y106.430 E0.04378
G1 X147.354 Y107.449 E0.03297
G1 X146.899 Y108.566 E0.03779
G1 X146.172 Y109.796 E0.04480
G1 X145.484 Y110.695 E0.03550
G1 X144.560 Y111.662 E0.04192
G1 X143.241 Y112.765 E0.05391
G1 X141.482 Y113.915 E0.06591
G1 X139.574 Y114.891 E0.06718
G1 X136.718 Y115.990 E0.09596
G1 X133.296 Y116.895 E0.11099
G1 X129.675 Y117.470 E0.11496
G1 X124.418 Y117.726 E0.16501
G1 X119.476 Y117.364 E0.15538
G1 X115.106 Y116.521 E0.13953
G1 X111.238 Y115.240 E0.12777
G1 X107.723 Y113.431 E0.12396
G1 X105.789 Y111.983 E0.07574
G1 X104.356 Y110.505 E0.06454
G1 X103.368 Y109.072 E0.05457
G1 X102.696 Y107.590 E0.05104
G1 X102.394 Y106.492 E0.03570
G1 X102.258 Y105.362 E0.03567
G1 X102.344 Y103.752 E0.05057
G1 X102.614 Y102.598 E0.03715
G1 X103.028 Y101.550 E0.03534
G1 X103.782 Y100.214 E0.04809
G1 X104.553 Y99.217 E0.03951
G1 X104.851 Y99.448 F10800.000
G1 F1200.000
G1 X105.740 Y98.525 E0.04018
G1 X107.137 Y97.380 E0.05665
G1 X109.051 Y96.169 E0.07100
G1 X111.041 Y95.203 E0.06936
G1 X114.263 Y94.058 E0.10723
G1 X117.861 Y93.218 E0.11583
G1 X121.726 Y92.728 E0.12217
G1 X127.013 Y92.650 E0.16578
G1 X131.826 Y93.164 E0.15177
G1 X136.259 Y94.214 E0.14284
G1 X140.010 Y95.688 E0.12634
G1 X142.719 Y97.276 E0.09846
G1 X144.572 Y98.830 E0.07584
G1 X145.689 Y100.122 E0.05353
G1 X146.567 Y101.572 E0.05316
G1 X147.012 Y102.676 E0.03733
G1 X147.253 Y103.655 E0.03160
G1 X147.376 Y105.024 E0.04310
G1 X147.246 Y106.336 E0.04134
G1 X146.997 Y107.327 E0.03203
G1 X146.561 Y108.398 E0.03627
G1 X145.875 Y109.563 E0.04239
G1 X145.203 Y110.443 E0.03470
G1 X144.325 Y111.366 E0.03995
G1 X143.021 Y112.459 E0.05335
G1 X141.301 Y113.584 E0.06445
G1 X139.423 Y114.545 E0.06613
G1 X136.611 Y115.628 E0.09451
G1 X133.220 Y116.525 E0.10996
G1 X129.623 Y117.097 E0.11421
G1 X124.418 Y117.349 E0.16338
G1 X119.543 Y116.993 E0.15327
G1 X115.200 Y116.156 E0.13866
G1 X111.369 Y114.886 E0.12657
G1 X107.936 Y113.120 E0.12103
G1 X106.038 Y111.699 E0.07434
G1 X104.635 Y110.249 E0.06326
G1 X103.696 Y108.885 E0.05194
G1 X103.057 Y107.482 E0.04834
G1 X102.764 Y106.419 E0.03455
G1 X102.634 Y105.332 E0.03434
G1 X102.717 Y103.806 E0.04791
G1 X102.975 Y102.708 E0.03537
G1 X103.377 Y101.691 E0.03428
G1 X104.099 Y100.419 E0.04587
G1 X104.814 Y99.495 E0.03663
G1 F8640.000
G1 X105.740 Y98.525 E-0.30964
G1 X107.137 Y97.380 E-0.41717
G1 X107.259 Y97.303 E-0.03319
G1 E-0.04000 F2100.00000
G1 Z0.800 F10800.000
G1 X100.770 Y101.933
G1 Z0.200
G1 E0.80000 F2100.00000
G1 F1200.000
G1 X101.427 Y100.350 E0.05372
G1 X102.221 Y99.027 E0.04836
G1 X103.172 Y97.815 E0.04831
G1 X104.258 Y96.713 E0.04852
G1 X105.909 Y95.382 E0.06651
G1 X108.038 Y94.060 E0.07856
G1 X110.355 Y92.956 E0.08047
G1 X113.595 Y91.816 E0.10770
G1 X117.414 Y90.925 E0.12295
G1 X121.696 Y90.386 E0.13534
G1 X127.385 Y90.327 E0.17839
G1 X132.181 Y90.854 E0.15127
G1 X136.882 Y91.960 E0.15142
G1 X140.929 Y93.533 E0.13612
G1 X144.064 Y95.365 E0.11388
G1 X146.082 Y97.035 E0.08211
G1 X147.496 Y98.637 E0.06701
G1 X148.629 Y100.467 E0.06748
G1 X149.316 Y102.218 E0.05896
G1 X149.610 Y103.573 E0.04347
G1 X149.712 Y104.956 E0.04348
G1 X149.572 Y106.622 E0.05243
G1 X149.217 Y108.053 E0.04622
G1 X148.668 Y109.407 E0.04583
G1 X147.834 Y110.843 E0.05206
G1 X146.942 Y112.005 E0.04594
G1 X145.931 Y113.062 E0.04586
G1 X144.401 Y114.344 E0.06259
G1 X142.443 Y115.623 E0.07331
G1 X140.311 Y116.708 E0.07502
G1 X137.267 Y117.872 E0.10217
G1 X133.616 Y118.829 E0.11837
G1 X129.874 Y119.422 E0.11879
G1 X124.280 Y119.684 E0.17556
G1 X119.229 Y119.311 E0.15882
G1 X114.761 Y118.455 E0.14262
G1 X110.525 Y117.068 E0.13977
G1 X106.705 Y115.108 E0.13462
G1 X104.648 Y113.586 E0.08023
G1 X102.876 Y111.790 E0.07910
G1 X101.731 Y110.155 E0.06259
G1 X100.873 Y108.323 E0.06343
G1 X100.477 Y106.897 E0.04641
G1 X100.296 Y105.436 E0.04615
G1 X100.383 Y103.608 E0.05740
G1 X100.757 Y101.991 E0.05203
G1 X101.124 Y102.076 F10800.000
G1 F1200.000
G1 X101.758 Y100.532 E0.05235
G1 X102.525 Y99.251 E0.04682
G1 X103.448 Y98.072 E0.04695
G1 X104.503 Y96.999 E0.04717
G1 X106.118 Y95.696 E0.06508
G1 X108.210 Y94.396 E0.07721
G1 X110.490 Y93.308 E0.07920
G1 X113.691 Y92.181 E0.10642
G1 X117.470 Y91.297 E0.12170
G1 X121.732 Y90.762 E0.13469
G1 X127.355 Y90.703 E0.17631
G1 X132.128 Y91.228 E0.15055
G1 X136.783 Y92.324 E0.14993
G1 X140.778 Y93.879 E0.13442
G1 X143.836 Y95.666 E0.11105
G1 X145.830 Y97.316 E0.08116
G1 X147.203 Y98.874 E0.06512
G1 X148.300 Y100.651 E0.06545
G1 X148.951 Y102.312 E0.05596
G1 X149.239 Y103.639 E0.04258
G1 X149.335 Y104.968 E0.04176
G1 X149.198 Y106.575 E0.05057
G1 X148.863 Y107.924 E0.04359
G1 X148.335 Y109.230 E0.04417
G1 X147.528 Y110.623 E0.05050
G1 X146.662 Y111.752 E0.04460
G1 X145.681 Y112.780 E0.04456
G1 X144.185 Y114.035 E0.06121
G1 X142.263 Y115.291 E0.07200
G1 X140.167 Y116.359 E0.07377
G1 X137.162 Y117.510 E0.10089
G1 X133.529 Y118.462 E0.11775
G1 X129.825 Y119.048 E0.11758
G1 X124.297 Y119.307 E0.17352
G1 X119.289 Y118.939 E0.15744
G1 X114.844 Y118.087 E0.14190
G1 X110.656 Y116.715 E0.13818
G1 X106.917 Y114.796 E0.13179
G1 X104.884 Y113.292 E0.07928
G1 X103.156 Y111.537 E0.07722
G1 X102.050 Y109.953 E0.06059
G1 X101.232 Y108.207 E0.06045
G1 X100.850 Y106.837 E0.04461
G1 X100.672 Y105.406 E0.04519
G1 X100.759 Y103.643 E0.05534
G1 X101.110 Y102.135 E0.04856
G1 X101.477 Y102.221 F10800.000
G1 F1200.000
G1 X101.497 Y102.135 E0.00278
G1 X102.089 Y100.714 E0.04826
G1 X102.829 Y99.473 E0.04529
G1 X103.725 Y98.328 E0.04558
G1 X104.748 Y97.286 E0.04581
G1 X106.328 Y96.010 E0.06365
G1 X108.382 Y94.731 E0.07586
G1 X110.624 Y93.660 E0.07793
G1 X113.787 Y92.546 E0.10513
G1 X117.527 Y91.670 E0.12045
G1 X121.769 Y91.137 E0.13404
G1 X127.325 Y91.079 E0.17423
G1 X132.053 Y91.597 E0.14912
G1 X136.683 Y92.688 E0.14915
G1 X140.627 Y94.225 E0.13271
G1 X143.607 Y95.966 E0.10822
G1 X145.578 Y97.597 E0.08021
G1 X146.909 Y99.111 E0.06321
G1 X147.970 Y100.834 E0.06343
G1 X148.586 Y102.408 E0.05299
G1 X148.864 Y103.680 E0.04085
G1 X148.958 Y104.980 E0.04086
G1 X148.823 Y106.527 E0.04868
G1 X148.500 Y107.819 E0.04178
G1 X148.002 Y109.052 E0.04170
G1 X147.221 Y110.404 E0.04894
G1 X146.382 Y111.499 E0.04326
G1 X145.430 Y112.498 E0.04326
G1 X143.969 Y113.725 E0.05983
G1 X142.083 Y114.960 E0.07069
G1 X140.022 Y116.011 E0.07252
G1 X137.056 Y117.147 E0.09961
G1 X133.461 Y118.091 E0.11654
G1 X129.776 Y118.673 E0.11696
G1 X124.313 Y118.930 E0.17149
G1 X119.349 Y118.567 E0.15606
G1 X114.927 Y117.719 E0.14118
G1 X110.788 Y116.361 E0.13658
G1 X107.129 Y114.483 E0.12896
G1 X105.120 Y112.998 E0.07833
G1 X103.436 Y111.284 E0.07533
G1 X102.384 Y109.778 E0.05762
G1 X101.591 Y108.090 E0.05846
G1 X101.217 Y106.749 E0.04366
G1 X101.049 Y105.377 E0.04335
G1 X101.135 Y103.680 E0.05328
G1 X101.463 Y102.279 E0.04510
G1 F8640.000
G1 X101.497 Y102.135 E-0.03431
G1 X102.089 Y100.714 E-0.35543
G1 X102.829 Y99.473 E-0.33351
G1 X102.927 Y99.348 E-0.03675
G1 E-0.04000 F2100.00000
G1 Z0.800 F10800.000
G1 X101.510 Y103.717
G1 Z0.200
G1 E0.80000 F2100.00000
G1 F1200.000
G1 X101.861 Y102.237 E0.04769
G1 X102.420 Y100.895 E0.04558
G1 X103.134 Y99.696 E0.04375
G1 X104.002 Y98.585 E0.04422
G1 X104.994 Y97.572 E0.04446
G1 X106.537 Y96.324 E0.06222
G1 X108.554 Y95.067 E0.07452
G1 X110.760 Y94.013 E0.07665
G1 X113.883 Y92.910 E0.10385
G1 X117.584 Y92.043 E0.11919
G1 X121.805 Y91.513 E0.13339
G1 X127.296 Y91.455 E0.17216
G1 X131.978 Y91.967 E0.14768
G1 X136.584 Y93.052 E0.14837
G1 X140.476 Y94.570 E0.13100
G1 X143.378 Y96.266 E0.10539
G1 X145.326 Y97.878 E0.07926
G1 X146.615 Y99.348 E0.06130
G1 X147.639 Y101.017 E0.06141
G1 X148.221 Y102.502 E0.05002
G1 X148.493 Y103.747 E0.03995
G1 X148.581 Y104.991 E0.03910
G1 X148.449 Y106.478 E0.04681
G1 X148.138 Y107.715 E0.03997
G1 X147.669 Y108.876 E0.03926
G1 X146.914 Y110.185 E0.04738
G1 X146.101 Y111.247 E0.04193
G1 X145.179 Y112.217 E0.04195
G1 X143.753 Y113.416 E0.05844
G1 X141.902 Y114.629 E0.06938
G1 X139.878 Y115.662 E0.07126
G1 X136.950 Y116.785 E0.09832
G1 X133.393 Y117.720 E0.11533
G1 X129.728 Y118.299 E0.11634
G1 X124.329 Y118.553 E0.16945
G1 X119.409 Y118.194 E0.15467
G1 X115.010 Y117.351 E0.14045
G1 X110.920 Y116.007 E0.13498
G1 X107.341 Y114.171 E0.12613
G1 X105.357 Y112.703 E0.07738
G1 X103.717 Y111.032 E0.07343
G1 X102.702 Y109.576 E0.05564
G1 X101.949 Y107.973 E0.05551
G1 X101.589 Y106.689 E0.04183
G1 X101.425 Y105.348 E0.04237
G1 X101.507 Y103.777 E0.04932
G1 X101.883 Y103.797 F10800.000
G1 F1200.000
G1 X102.224 Y102.339 E0.04693
G1 X102.751 Y101.076 E0.04291
G1 X103.438 Y99.918 E0.04222
G1 X104.279 Y98.841 E0.04285
G1 X105.240 Y97.858 E0.04310
G1 X106.746 Y96.638 E0.06078
G1 X108.726 Y95.403 E0.07316
G1 X110.895 Y94.365 E0.07538
G1 X113.979 Y93.275 E0.10257
G1 X117.641 Y92.416 E0.11794
G1 X121.841 Y91.888 E0.13274
G1 X127.266 Y91.831 E0.17009
G1 X131.925 Y92.341 E0.14697
G1 X136.484 Y93.416 E0.14687
G1 X140.325 Y94.916 E0.12929
G1 X143.150 Y96.566 E0.10257
G1 X145.073 Y98.159 E0.07830
G1 X146.320 Y99.584 E0.05937
G1 X147.309 Y101.199 E0.05939
G1 X147.856 Y102.598 E0.04709
G1 X148.117 Y103.788 E0.03820
G1 X148.204 Y105.003 E0.03820
G1 X148.080 Y106.401 E0.04401
G1 X147.783 Y107.586 E0.03828
G1 X147.324 Y108.722 E0.03844
G1 X146.607 Y109.965 E0.04500
G1 X145.808 Y111.010 E0.04122
G1 X144.914 Y111.949 E0.04066
G1 X143.519 Y113.120 E0.05711
G1 X141.722 Y114.298 E0.06737
G1 X139.715 Y115.322 E0.07063
G1 X136.844 Y116.423 E0.09642
G1 X133.324 Y117.349 E0.11411
G1 X129.679 Y117.925 E0.11572
G1 X124.345 Y118.176 E0.16742
G1 X119.469 Y117.822 E0.15328
G1 X115.093 Y116.983 E0.13973
G1 X111.052 Y115.654 E0.13338
G1 X107.553 Y113.859 E0.12331
G1 X105.593 Y112.409 E0.07642
G1 X103.997 Y110.779 E0.07152
G1 X103.021 Y109.374 E0.05366
G1 X102.308 Y107.857 E0.05256
G1 X101.956 Y106.601 E0.04088
G1 X101.801 Y105.319 E0.04050
G1 X101.880 Y103.857 E0.04591
G1 F8640.000
G1 X102.224 Y102.339 E-0.35929
G1 X102.751 Y101.076 E-0.31603
G1 X102.938 Y100.761 E-0.08468
G1 E-0.04000 F2100.00000
G1 Z0.800 F10800.000
G1 X103.003 Y103.935
G1 Z0.200
G1 E0.80000 F2100.00000
G1 F1200.000
G1 X103.295 Y102.703 E0.03969
G1 X103.745 Y101.617 E0.03686
G1 X104.354 Y100.584 E0.03760
G1 X105.124 Y99.592 E0.03938
G1 X106.010 Y98.687 E0.03971
G1 X107.413 Y97.552 E0.05657
G1 X109.244 Y96.409 E0.06769
G1 X111.301 Y95.421 E0.07155
G1 X114.268 Y94.369 E0.09870
G1 X117.851 Y93.528 E0.11540
G1 X121.908 Y93.017 E0.12819
G1 X127.177 Y92.959 E0.16522
G1 X131.722 Y93.454 E0.14336
G1 X136.160 Y94.500 E0.14296
G1 X139.846 Y95.941 E0.12407
G1 X142.489 Y97.485 E0.09599
G1 X144.295 Y98.979 E0.07349
G1 X145.417 Y100.265 E0.05350
G1 X146.303 Y101.716 E0.05330
G1 X146.761 Y102.886 E0.03941
G1 X146.996 Y103.937 E0.03377
G1 X147.072 Y105.008 E0.03366
G1 X146.971 Y106.171 E0.03659
G1 X146.704 Y107.247 E0.03478
G1 X146.291 Y108.260 E0.03428
G1 X145.685 Y109.308 E0.03796
G1 X144.954 Y110.268 E0.03782
G1 X144.132 Y111.131 E0.03738
G1 X142.836 Y112.219 E0.05306
G1 X141.180 Y113.304 E0.06208
G1 X139.263 Y114.285 E0.06749
G1 X136.526 Y115.337 E0.09196
G1 X133.101 Y116.240 E0.11106
G1 X129.553 Y116.801 E0.11261
G1 X124.393 Y117.046 E0.16199
G1 X119.650 Y116.704 E0.14911
G1 X115.342 Y115.879 E0.13753
G1 X111.448 Y114.593 E0.12857
G1 X108.188 Y112.922 E0.11486
G1 X106.302 Y111.527 E0.07357
G1 X104.898 Y110.093 E0.06291
G1 X104.007 Y108.819 E0.04874
G1 X103.384 Y107.503 E0.04567
G1 X103.068 Y106.394 E0.03615
G1 X102.930 Y105.234 E0.03662
G1 X102.999 Y103.995 E0.03892
G1 X103.373 Y104.015 F10800.000
G1 F1200.000
G1 X103.649 Y102.833 E0.03808
G1 X104.077 Y101.797 E0.03514
G1 X104.659 Y100.806 E0.03605
G1 X105.402 Y99.848 E0.03798
G1 X106.272 Y98.958 E0.03902
G1 X107.640 Y97.853 E0.05517
G1 X109.417 Y96.744 E0.06564
G1 X111.437 Y95.773 E0.07028
G1 X114.364 Y94.734 E0.09740
G1 X117.928 Y93.897 E0.11476
G1 X121.923 Y93.394 E0.12625
G1 X127.147 Y93.335 E0.16383
G1 X131.670 Y93.827 E0.14264
G1 X136.036 Y94.856 E0.14062
G1 X139.668 Y96.274 E0.12227
G1 X142.286 Y97.803 E0.09504
G1 X144.021 Y99.239 E0.07064
G1 X145.104 Y100.476 E0.05153
G1 X145.958 Y101.870 E0.05126
G1 X146.396 Y102.984 E0.03754
G1 X146.621 Y103.979 E0.03200
G1 X146.695 Y104.992 E0.03183
G1 X146.602 Y106.095 E0.03472
G1 X146.349 Y107.118 E0.03303
G1 X145.946 Y108.105 E0.03344
G1 X145.378 Y109.090 E0.03564
G1 X144.674 Y110.016 E0.03648
G1 X143.881 Y110.849 E0.03606
G1 X142.619 Y111.910 E0.05168
G1 X140.999 Y112.973 E0.06078
G1 X139.119 Y113.936 E0.06623
G1 X136.420 Y114.975 E0.09067
G1 X133.033 Y115.869 E0.10984
G1 X129.505 Y116.427 E0.11199
G1 X124.409 Y116.669 E0.15996
G1 X119.710 Y116.332 E0.14771
G1 X115.425 Y115.511 E0.13680
G1 X111.580 Y114.240 E0.12696
G1 X108.400 Y112.610 E0.11205
G1 X106.538 Y111.232 E0.07262
G1 X105.198 Y109.864 E0.06004
G1 X104.326 Y108.616 E0.04775
G1 X103.742 Y107.385 E0.04273
G1 X103.435 Y106.305 E0.03518
G1 X103.307 Y105.207 E0.03469
G1 X103.370 Y104.075 E0.03552
G1 X103.743 Y104.096 F10800.000
G1 F1200.000
G1 X104.004 Y102.962 E0.03650
G1 X104.409 Y101.976 E0.03342
G1 X104.965 Y101.027 E0.03449
G1 X105.679 Y100.104 E0.03657
G1 X106.534 Y99.230 E0.03833
G1 X107.868 Y98.153 E0.05377
G1 X109.590 Y97.080 E0.06361
G1 X111.573 Y96.125 E0.06900
G1 X114.461 Y95.099 E0.09611
G1 X118.004 Y94.266 E0.11412
G1 X121.938 Y93.771 E0.12431
G1 X127.118 Y93.711 E0.16243
G1 X131.618 Y94.201 E0.14193
G1 X135.911 Y95.212 E0.13829
G1 X139.491 Y96.607 E0.12047
G1 X142.082 Y98.120 E0.09409
M73 Q1 S60
G1 X143.748 Y99.499 E0.06780
G1 X144.791 Y100.687 E0.04957
G1 X145.613 Y102.024 E0.04921
G1 X146.032 Y103.082 E0.03567
M73 P1 R60
G1 X146.246 Y104.022 E0.03023
G1 X146.318 Y104.976 E0.02999
G1 X146.232 Y106.020 E0.03284
G1 X145.986 Y107.014 E0.03211
G1 X145.603 Y107.950 E0.03174
G1 X145.070 Y108.871 E0.03334
G1 X144.393 Y109.764 E0.03513
G1 X143.615 Y110.582 E0.03540
G1 X142.403 Y111.601 E0.04965
G1 X140.817 Y112.642 E0.05948
G1 X138.974 Y113.588 E0.06498
G1 X136.313 Y114.613 E0.08939
G1 X132.964 Y115.498 E0.10861
G1 X129.456 Y116.053 E0.11136
G1 X124.424 Y116.292 E0.15794
G1 X119.770 Y115.960 E0.14632
G1 X115.508 Y115.143 E0.13606
G1 X111.712 Y113.887 E0.12535
